build/img/contacts/vb.svg

<svg width="21" height="21" viewBox="0 0 21 21" fill="none" xmlns="http://www.w3.org/2000/svg">
<path d="M15.7333 0H5.25C2.36667 0 0 2.36667 0 5.26667V15.75C0 18.6333 2.36667 21 5.25 21H15.7333C18.6333 21 21 18.6333 21 15.7333V5.26667C21 2.36667 18.6333 0 15.7333 0ZM9.93333 4.31667C9.96667 3.8 10.45 3.98333 10.7 3.95C13.8333 4.05 16.5333 6.86667 16.5 9.9C16.5 10.2 16.6 10.6333 16.15 10.6333C15.7167 10.6333 15.8333 10.1833 15.7833 9.88333C15.3667 6.66667 13.8667 5.15 10.6 4.65C10.3333 4.61667 9.91667 4.66667 9.93333 4.31667ZM14.6167 10.0333C14.1167 10.1 14.2167 9.66667 14.1667 9.38333C13.8333 7.41667 13.1333 6.7 11.1167 6.26667C10.8167 6.2 10.35 6.25 10.4333 5.8C10.5 5.36667 10.9167 5.51667 11.2333 5.55C13.25 5.78333 14.9 7.5 14.8833 9.38333C14.85 9.58333 14.9833 9.96667 14.6167 10.0333ZM13.3667 9C13.3667 9.26667 13.3333 9.51667 13.0333 9.55C12.8167 9.58333 12.6833 9.4 12.65 9.18333C12.5667 8.38333 12.1333 7.9 11.3 7.76667C11.05 7.73333 10.8167 7.65 10.9333 7.31667C11.0167 7.1 11.2167 7.06667 11.4333 7.06667C12.3333 7.05 13.3667 8.1 13.3667 9ZM16.5333 15.15C16.1833 16.1 15 17.0667 13.9833 17.05C13.8333 17.0167 13.55 16.9667 13.3 16.8667C8.83333 14.9833 5.58333 11.8833 3.75 7.45C3.13333 5.96667 3.78333 4.7 5.33333 4.2C5.61667 4.1 5.88333 4.1 6.16667 4.2C6.83333 4.43333 8.51667 6.71667 8.55 7.38333C8.58333 7.9 8.21667 8.18333 7.86667 8.41667C7.18333 8.86667 7.18333 9.43333 7.48333 10.0833C8.13333 11.5167 9.25 12.5167 10.7 13.15C11.2167 13.3833 11.7333 13.3667 12.0833 12.8333C12.7167 11.8833 13.5 11.9333 14.35 12.5167C14.7833 12.8167 15.2167 13.1 15.6167 13.4167C16.1667 13.8667 16.8667 14.2333 16.5333 15.15Z" fill="#555665"/>
</svg>

<svg width="21" height="21" fill="none" xmlns="http://www.w3.org/2000/svg"><path d="M15.733 0H5.25C2.367 0 0 2.367 0 5.267V15.75C0 18.633 2.367 21 5.25 21h10.483c2.9 0 5.267-2.367 5.267-5.267V5.267C21 2.367 18.633 0 15.733 0zm-5.8 4.317c.034-.517.517-.334.767-.367 3.133.1 5.833 2.917 5.8 5.95 0 .3.1.733-.35.733-.433 0-.317-.45-.367-.75-.416-3.216-1.916-4.733-5.183-5.233-.267-.033-.683.017-.667-.333zm4.684 5.716c-.5.067-.4-.366-.45-.65-.334-1.966-1.034-2.683-3.05-3.116-.3-.067-.767-.017-.684-.467.067-.433.484-.283.8-.25 2.017.233 3.667 1.95 3.65 3.833-.033.2.1.584-.266.65zM13.367 9c0 .267-.034.517-.334.55-.216.033-.35-.15-.383-.367-.083-.8-.517-1.283-1.35-1.416-.25-.034-.483-.117-.367-.45.084-.217.284-.25.5-.25.9-.017 1.934 1.033 1.934 1.933zm3.166 6.15c-.35.95-1.533 1.917-2.55 1.9-.15-.033-.433-.083-.683-.183-4.467-1.884-7.717-4.984-9.55-9.417-.617-1.483.033-2.75 1.583-3.25.284-.1.55-.1.834 0 .666.233 2.35 2.517 2.383 3.183.033.517-.333.8-.683 1.034-.684.45-.684 1.016-.384 1.666.65 1.434 1.767 2.434 3.217 3.067.517.233 1.033.217 1.383-.317.634-.95 1.417-.9 2.267-.316.433.3.867.583 1.267.9.55.45 1.25.816.916 1.733z" fill="#555665"/></svg>
